X: 27831
T: Moth In The Lantern, The
R: jig
M: 6/8
K: Bminor
F2Bd ~f3|F2Bd ~e3|F2Bd ~f3|~e3e ~f3|F2Bd ~f3|F2Bd ~e3|f2ed efg|f2dc B3|
F2Bd ~c3|d2cd ~e3|F2Bd ~c3|d2cB =cBG|F2Bd ~c3|dcBd ~e3|f2ed efg|f2dc B3|
|:fBB dBBd|eAA cAAe|fBB dBBd|efg efge|fBB dBBc|eAA cbcA|f2ed efg|fdc B3:|

